spyder/images/light/findnext.svg

<svg width="24" height="24" viewBox="0 0 24 24" fill="none" xmlns="http://www.w3.org/2000/svg">
<path fill-rule="evenodd" clip-rule="evenodd" d="M8.9899 2H11.0101V14.1212L16.5657 8.56566L18 10L15.8723 12.1277C14.0164 12.5555 12.5555 14.0164 12.1277 15.8723L10 18L2 10L3.43434 8.56566L8.9899 14.1212V2ZM18.9506 14.5731C18.3701 13.9926 17.5828 13.6665 16.7619 13.6665C15.941 13.6665 15.1537 13.9926 14.5732 14.5731C13.9928 15.1535 13.6667 15.9408 13.6667 16.7617C13.6667 17.5827 13.9928 18.3699 14.5732 18.9504C15.1537 19.5309 15.941 19.857 16.7619 19.857C17.5286 19.857 18.2333 19.576 18.7762 19.1141L18.9048 19.2427V19.6189L21.2857 21.9998L22 21.2856L19.6191 18.9046H19.2429L19.1143 18.776C19.5762 18.2332 19.8571 17.5284 19.8571 16.7617C19.8571 15.9408 19.531 15.1535 18.9506 14.5731ZM14.6191 16.7617C14.6191 15.5713 15.5714 14.6189 16.7619 14.6189C17.9524 14.6189 18.9048 15.5713 18.9048 16.7617C18.9048 17.9522 17.9524 18.9046 16.7619 18.9046C15.5714 18.9046 14.6191 17.9522 14.6191 16.7617Z" fill="#37414F"/>
</svg>

<svg xmlns="http://www.w3.org/2000/svg" width="24" height="24" fill="none"><path fill="#37414F" fill-rule="evenodd" d="M8.99 2h2.02v12.121l5.556-5.555L18 10l-2.128 2.128a5.007 5.007 0 0 0-3.744 3.744L10 18l-8-8 1.434-1.434L8.99 14.12V2Zm9.96 12.573a3.095 3.095 0 1 0-.174 4.541l.129.129v.376l2.38 2.38.715-.713-2.38-2.381h-.377l-.129-.129a3.102 3.102 0 0 0-.163-4.203Zm-4.33 2.189c0-1.19.951-2.143 2.142-2.143 1.19 0 2.143.952 2.143 2.143 0 1.19-.953 2.143-2.143 2.143a2.134 2.134 0 0 1-2.143-2.143Z" clip-rule="evenodd"/></svg>
